tracks/powershell.svg

<svg width="96" height="96" fill="none" xmlns="http://www.w3.org/2000/svg">
  <path d="M44 2.3093a8 8 0 018 0l33.5692 19.3812a8 8 0 014 6.9282v38.7624a7.9998 7.9998 0 01-4 6.9282L52 93.6905a7.9998 7.9998 0 01-8 0L10.4308 74.3093a7.9998 7.9998 0 01-4-6.9282V28.6187a8 8 0 014-6.9282L44 2.3093z" fill="#fff"/>
  <path fill-rule="evenodd" clip-rule="evenodd" d="M84.1907 22.9024L51.5701 4.069a7.233 7.233 0 00-7.2331 0L11.7165 22.9024a7.2332 7.2332 0 00-3.6166 6.2641v37.667a7.233 7.233 0 003.6166 6.264L44.337 91.931a7.233 7.233 0 007.2331 0l32.6206-18.8335a7.233 7.233 0 003.6165-6.264v-37.667a7.2333 7.2333 0 00-3.6165-6.2641zM53.1201 1.3844a10.333 10.333 0 00-10.333 0L10.1665 20.2178A10.3332 10.3332 0 005 29.1665v37.667a10.333 10.333 0 005.1665 8.9486l32.6206 18.8335a10.333 10.333 0 0010.333 0l32.6205-18.8335a10.333 10.333 0 005.1666-8.9486v-37.667a10.3332 10.3332 0 00-5.1666-8.9487L53.1201 1.3844z" fill="#36287B"/>
  <path d="M69.4599 30H33.6448c-1.1847 0-2.212.8019-2.4754 1.9324l-7.1048 30.4881c-.3589 1.5399.8221 3.0124 2.4358 3.0371l35.4489.5421c1.1926.0182 2.2374-.7785 2.511-1.9147l7.4709-31.0302c.3756-1.56-.8337-3.0548-2.4713-3.0548z" fill="#152130"/>
  <path d="M69.4599 30H33.6448c-1.1847 0-2.212.8019-2.4754 1.9324l-7.1048 30.4881c-.3589 1.5399.8221 3.0124 2.4358 3.0371l35.4489.5421c1.1926.0182 2.2374-.7785 2.511-1.9147l7.4709-31.0302c.3756-1.56-.8337-3.0548-2.4713-3.0548z" fill="url(#paint0_linear)"/>
  <path d="M54.7309 47.7495L43.7634 36.3341c-.2591-.2697-.5587-.5049-.9083-.6464-.8434-.3414-1.4868-.3265-2.392.0315-.315.1246-.5739.3585-.7257.6559-.2834.5553-.3943.9944-.3409 1.5055.0518.4957.3482.9265.6972 1.2894l8.9771 9.3349c.3459.3598.2953.934-.1085 1.2304L34.628 60.2569c-.6109.4484-.9625 1.1938-.756 1.9133.2765.9633.7375 1.5 1.5953 1.8482.5668.2301 1.2073.0742 1.7031-.2796l17.2067-12.2793c1.2342-.8807 1.4002-2.6209.3538-3.71z" fill="#487FD0"/>
  <path d="M53.1346 45.7571L42.1671 34.3417c-.2591-.2697-.5588-.505-.9083-.6464-.8434-.3414-1.4868-.3265-2.392.0315-.315.1246-.5739.3585-.7257.6559-.2834.5553-.3943.9943-.3409 1.5054.0518.4958.3482.9266.6972 1.2895l8.9771 9.3349c.3459.3597.2952.9339-.1085 1.2303L33.0317 58.2645c-.6109.4484-.9625 1.1938-.756 1.9133.2765.9633.7375 1.5 1.5953 1.8482.5668.23 1.2073.0742 1.7031-.2796l17.2067-12.2793c1.2342-.8807 1.4002-2.6209.3538-3.71z" fill="#fff"/>
  <path d="M47.392 61.1899c0-1.1437.9473-2.0708 2.1159-2.0708h9.3096c1.1685 0 2.1158.9271 2.1158 2.0708 0 1.1436-.9473 2.0707-2.1158 2.0707h-9.3096c-1.1686 0-2.1159-.9271-2.1159-2.0707z" fill="#487FD0"/>
  <path d="M45.3725 59.1975c0-1.1437.9473-2.0708 2.1158-2.0708h9.3097c1.1685 0 2.1158.9271 2.1158 2.0708 0 1.1436-.9473 2.0707-2.1158 2.0707h-9.3097c-1.1685 0-2.1158-.9271-2.1158-2.0707z" fill="#fff"/>
  <defs>
    <linearGradient id="paint0_linear" x1="48.0173" y1="30" x2="48.0173" y2="66.0309" gradientUnits="userSpaceOnUse">
      <stop stop-color="#382680"/>
      <stop offset="1" stop-color="#1C2F47"/>
    </linearGradient>
  </defs>
</svg>

<svg width="96" height="96" viewBox="0 0 96 96" fill="none" xmlns="http://www.w3.org/2000/svg">
<path d="M44 2.30935C46.4752 0.880283 49.5248 0.880284 52 2.30935L85.5692 21.6905C88.0444 23.1196 89.5692 25.7606 89.5692 28.6187V67.3811C89.5692 70.2393 88.0444 72.8803 85.5692 74.3093L52 93.6905C49.5248 95.1196 46.4752 95.1196 44 93.6905L10.4308 74.3093C7.95558 72.8803 6.43079 70.2393 6.43079 67.3811V28.6187C6.43079 25.7606 7.95558 23.1196 10.4308 21.6905L44 2.30935Z" fill="white"/>
<path fill-rule="evenodd" clip-rule="evenodd" d="M84.1907 22.9024L51.5701 4.06896C49.3322 2.77689 46.575 2.77689 44.337 4.06896L11.7165 22.9024C9.47853 24.1945 8.09991 26.5824 8.09991 29.1665V66.8335C8.09991 69.4176 9.47853 71.8055 11.7165 73.0975L44.337 91.931C46.575 93.2231 49.3322 93.2231 51.5701 91.931L84.1907 73.0975C86.4286 71.8055 87.8072 69.4176 87.8072 66.8335V29.1665C87.8072 26.5824 86.4286 24.1945 84.1907 22.9024ZM53.1201 1.38436C49.923 -0.461454 45.9841 -0.461455 42.7871 1.38436L10.1665 20.2178C6.96946 22.0637 5 25.4749 5 29.1665V66.8335C5 70.5251 6.96946 73.9363 10.1665 75.7821L42.7871 94.6156C45.9841 96.4614 49.923 96.4614 53.1201 94.6156L85.7406 75.7821C88.9377 73.9363 90.9071 70.5251 90.9071 66.8335V29.1665C90.9071 25.4749 88.9377 22.0637 85.7406 20.2178L53.1201 1.38436Z" fill="#36287B"/>
<path d="M69.4599 30H33.6448C32.4601 30 31.4328 30.8019 31.1694 31.9324L24.0646 62.4205C23.7057 63.9604 24.8867 65.4329 26.5004 65.4576L61.9493 65.9997C63.1419 66.0179 64.1867 65.2212 64.4603 64.085L71.9312 33.0548C72.3068 31.4948 71.0975 30 69.4599 30Z" fill="#152130"/>
<path d="M69.4599 30H33.6448C32.4601 30 31.4328 30.8019 31.1694 31.9324L24.0646 62.4205C23.7057 63.9604 24.8867 65.4329 26.5004 65.4576L61.9493 65.9997C63.1419 66.0179 64.1867 65.2212 64.4603 64.085L71.9312 33.0548C72.3068 31.4948 71.0975 30 69.4599 30Z" fill="url(#paint0_linear)"/>
<path d="M54.7309 47.7495L43.7634 36.3341C43.5043 36.0644 43.2047 35.8292 42.8551 35.6877C42.0117 35.3463 41.3683 35.3612 40.4631 35.7192C40.1481 35.8438 39.8892 36.0777 39.7374 36.3751C39.454 36.9304 39.3431 37.3695 39.3965 37.8806C39.4483 38.3763 39.7447 38.8071 40.0937 39.17L49.0708 48.5049C49.4167 48.8647 49.3661 49.4389 48.9623 49.7353L34.628 60.2569C34.0171 60.7053 33.6655 61.4507 33.872 62.1702C34.1485 63.1335 34.6095 63.6702 35.4673 64.0184C36.0341 64.2485 36.6746 64.0926 37.1704 63.7388L54.3771 51.4595C55.6113 50.5788 55.7773 48.8386 54.7309 47.7495Z" fill="#487FD0"/>
<path d="M53.1346 45.7571L42.1671 34.3417C41.908 34.072 41.6083 33.8367 41.2588 33.6953C40.4154 33.3539 39.772 33.3688 38.8668 33.7268C38.5518 33.8514 38.2929 34.0853 38.1411 34.3827C37.8577 34.938 37.7468 35.377 37.8002 35.8881C37.852 36.3839 38.1484 36.8147 38.4974 37.1776L47.4745 46.5125C47.8204 46.8722 47.7697 47.4464 47.366 47.7428L33.0317 58.2645C32.4208 58.7129 32.0692 59.4583 32.2757 60.1778C32.5522 61.1411 33.0132 61.6778 33.871 62.026C34.4378 62.256 35.0783 62.1002 35.5741 61.7464L52.7808 49.4671C54.015 48.5864 54.181 46.8462 53.1346 45.7571Z" fill="white"/>
<path d="M47.392 61.1899C47.392 60.0462 48.3393 59.1191 49.5079 59.1191H58.8175C59.986 59.1191 60.9333 60.0462 60.9333 61.1899V61.1899C60.9333 62.3335 59.986 63.2606 58.8175 63.2606H49.5079C48.3393 63.2606 47.392 62.3335 47.392 61.1899V61.1899Z" fill="#487FD0"/>
<path d="M45.3725 59.1975C45.3725 58.0538 46.3198 57.1267 47.4883 57.1267H56.798C57.9665 57.1267 58.9138 58.0538 58.9138 59.1975V59.1975C58.9138 60.3411 57.9665 61.2682 56.798 61.2682H47.4883C46.3198 61.2682 45.3725 60.3411 45.3725 59.1975V59.1975Z" fill="white"/>
<defs>
<linearGradient id="paint0_linear" x1="48.0173" y1="30" x2="48.0173" y2="66.0309" gradientUnits="userSpaceOnUse">
<stop stop-color="#382680"/>
<stop offset="1" stop-color="#1C2F47"/>
</linearGradient>
</defs>
</svg>
